!!!!SEGMENT: pl-kk--kk-i-356--003_cardilli-jacopo-antonio--ex-syon-species.krn
!!!cenid: 17xx:1945
!!!COM: Cardilli, Jacopo Antonio
!!!COM-rismid: pe30011037
!!!CDT: <1579->1586
!!!CNT: Italian
!!!OTL: Ex Syon species
!!!PDT:
!!!AGN: Sacred
!!!SMS-siglum: PL-Kk
!!!SMS-shelfmark: Kk.I.356
!!!SMS-shelfwork: 003 W
!!!SMS-variant:
!!!SMS-altvar:
!!!NIFC-rismid: 1001141854
!!!URL-scan: http://repozytorium.nifc.pl/skany/pl-kk-nut--i-356
!!!ONB-nifc: UWAGA: tylko partia basu.
!!!AIN: 1 bass
!!!key:
**kern	**text
*Ibass	*
*I"Basso	*
*I'B.	*
*clefF4	*
*k[b-]	*
*g:	*
*M2/1	*
=1-	=1-
!LO:TX:t=P:problem=zdwojony znak przykluczowy	!
00r	.
=2-	=2-
.	.
=3-	=3-
00r	.
=4-	=4-
.	.
=5-	=5-
1r	.
1.D\	Ex
=6-	=6-
.	.
2D/	Sy-
1F\	-on
=7-	=7-
*2\right	*
2.E\	spe-
4E\	-ci-
!LO:TX:t=P:problem=kreska pseudotaktowa	!
1D\	-es
=8-	=8-
2r	.
2G\	de-
2F#X\	-co-
2G\	-ris
=9-	=9-
4D\	E-
4E\	.
4F\	.
4G\	.
1A\	.
=10-	=10-
!LO:TX:t=P:problem=kreska pseudotaktowa	!
1D\	-jus.
00r	.
=11-	=11-
.	.
=12-	=12-
.	.
0r	.
=13-	=13-
.	.
2r	.
1G\	ex
=14-	=14-
.	.
2G\	Sy-
!LO:TX:t=P:problem=kreska pseudotaktowa	!
1D\	-on
=15-	=15-
2r	.
1G\	spe-
2F#X\	-ci-
=16-	=16-
2G\	-es
!LO:TX:t=P:problem=kreska pseudotaktowa	!
2D\	de-
!!LO:LB:g=original
2E\	-cor-
2C/	-is
=17-	=17-
1G\	e-
!LO:TX:t=P:problem=kreska pseudotaktowa	!
1D\	-jus
=18-	=18-
0r	.
=19-	=19-
1r	.
1.D\	De-
=20-	=20-
.	.
2D\	.
0G\	ma-
=21-	=21-
.	.
1C/	-ni-
=22-	=22-
1.G\	-fe-
2GG/	-ste
=23-	=23-
0D\	ve-
=24-	=24-
0AA/	-ni
=25-	=25-
!LO:TX:t=P:problem=kreska pseudotaktowa	!
0.D\	et
=26-	=26-
.	.
0r	.
=27-	=27-
.	.
2.F\	con-
4F\	-gre-
=28-	=28-
2F\	-ga-
2F\	-te
2D\	il-
2D\	-li
=29-	=29-
1G\	Sc(i)-
!LO:TX:t=P:problem=kreska pseudotaktowa	!
1C/	-tos
=30-	=30-
2.F\	e-
4E\	.
!!LO:LB:g=original
!LO:TX:t=P:problem=kreska pseudotaktowa	!
1C/	-jus
=31-	=31-
1r	.
2r	.
1D\	con-
=32-	=32-
.	.
2D/	-gre-
2D/	-ga-
2D/	-te
=33-	=33-
2BB-/	il-
2BB-/	-li
1.E\	san-
=34-	=34-
.	.
2C/	-ctos
1G\	e-
=35-	=35-
1D\	-jus
*	*ij
1BB-/	e-
=36-	=36-
1AA/	-jus
0GG/	e-
=37-	=37-
.	.
!LO:TX:t=P:problem=kreska pseudotaktowa	!
1D\	-jus
*	*Xij
=38-	=38-
2r	.
1C/	qui
2C/	or-
=39-	=39-
2BB-/	-di-
2GG/	-na-
1C/	-ve-
=40-	=40-
2.BB-/	.
!!LO:LB:g=original
4C/	.
0D\	-runt
=41-	=41-
.	.
1r	.
=42-	=42-
2r	.
1D\	qui
2D/	or-
=43-	=43-
2E-X\	-di-
2C/	-na-
2.BB-/	-ve-
4C/	.
=44-	=44-
!LO:TX:t=P:problem=kreska pseudotaktowa	!
1D\	.
2GG,</	-runt,
1C/	te-
=45-	=45-
.	.
2AA/	-sta-
2BB-/	-men-
2GG/	-t(um)
=46-	=46-
1D\	e-
!LO:TX:t=P:problem=kreska pseudotaktowa	!
1GG/	-jus
=47-	=47-
2r	.
1G\	su-
2F\	-per
=48-	=48-
2E-X\	sa-
2C/	-cri-
2D/	-fi-
2GG/	-ci-
=49-	=49-
!LO:TX:t=P:problem=kreska pseudotaktowa	!
1D\	-a
00r	.
=50-	=50-
.	.
=51-	=51-
.	.
0GG/	su-
=52-	=52-
.	.
1D\	-per
=53-	=53-
1BB-/	sa-
1GG/	-cri-
=54-	=54-
1.D\	-fi-
2D/	-ci-
=55-	=55-
2GG/	-a
1C/	sa-
2BB#X/	-cri-
=56-	=56-
2C/	-fi-
2C/	-ci-
00GG/;	-a.
==	==
*-	*-
!!!EED: Leszek Kubiak
!!!EEV: 2021-03-03
!!!ENC: Tomasz Grochalski
!!!END: 2021-02-06
